X:7
T:Vals
R:Vals
O:Risinge, Östergötland
B:Ög 10
C:Dahlgren
S:Gustav Andersson
N:Smus Ög 10 bild 8
M:3/4
L:1/8
K:D
f2 c2 d2 | b4 a2 | g2 B2 c2 | dedc d2 | f2 c2 d2 | b4 a2 | g2 B2 c2 |1 d4 z2 :|2 d12/ |:
g4 g2 | f2 FAdf | b4 b2 | a2 Adfa | g2 Aceg | f2 FAdf | e2 EAce |1 d4 d2 :|2 d4 z2 |:
dcBcec | dcBc | b2 e2 f2 | 
gagf g2 | dcBcec | d2 cB c2 | b2 e2 f2 | g4 z2 :|

